X:440
T:The Lonesome Wind
C:Solo de Jesse Brock
N:Fast Track - Fast Track - Transcribed by Philippe Colleu
R:bluegrass
L:1/8
Q:1/4=150
M:4/4
K:C
"(113 bpm)"z2 B,D EG Bd | "E"e2 d/z/e ed BA | g/z/^g ed B2 (3Bde | g/z/^g ed ed BA/_B/ | 
AG E2 A/z/B dB | de d2 A/z/B d2 | ^fe d/^d/B e=d/z/ ^dB | "B"e^d Be ^cA dB | AB G/z/^G ED B,/A,/G, | 
"E"[E8B,8] | 


